X: 1
T: Brumley Brae, The
M: 4/4
L: 1/8
R: reel
K: Dmaj
|:d2 (cd) AFD(d|cd)AF DFAF|E2 (EF) GFED|CEGB =cA^cA|
d2 (cd) AFD(d|cd)AF DFAF|Begf edcB|1 AGFE D2 A2:|2 AGFE D2 a2||
|:^gafd A(aga)|fdA(a ^ga)fd|eBBe bagf|edcB A^ABc|
d2 (cd) AFD(d|cd)AF DFAF|G,B,DB, A,CEG|1 F2 D2 D2 d2:|2 F2 D2 D4||
